X:186 
T:Scotch Hunt (reel), The
F:file ID: cre.5/186scotch
B:CRE5.176 (Fiach Albanach)
S:Jim Mulqueeny (Clare)
N:This is an "ambiguous" tune that might be a hybrid of A minor in part 1 
and A modal in part 2. Or it might be A modal all the way through. 
Q:180
M:C
R:reel
K:Am
EGAB cedc|BGGG eGdG|EGAB cdea|gedB cABG|
EGAB cedc|BG~G2 eGdG|EGAB cde^f|gedB cAce ||
a3b aged|^cde^f g2fg|a2bg agea|gedB cAce|
a3b aged|^cde^f g2ga|baa^f gfef|gedB cABG ||

%%%

